CircuiTikZ/ohmmeter.svg

<?xml version="1.0" encoding="UTF-8" standalone="no"?>
<!-- Created with Inkscape (http://www.inkscape.org/) -->

<svg
   xmlns:dc="http://purl.org/dc/elements/1.1/"
   xmlns:cc="http://creativecommons.org/ns#"
   xmlns:rdf="http://www.w3.org/1999/02/22-rdf-syntax-ns#"
   xmlns:svg="http://www.w3.org/2000/svg"
   xmlns="http://www.w3.org/2000/svg"
   xmlns:sodipodi="http://sodipodi.sourceforge.net/DTD/sodipodi-0.dtd"
   xmlns:inkscape="http://www.inkscape.org/namespaces/inkscape"
   width="210mm"
   height="297mm"
   viewBox="0 0 210 297"
   version="1.1"
   id="svg131893"
   inkscape:version="0.92.1 r15371"
   sodipodi:docname="ohmmeter.svg">
  <defs
     id="defs131887" />
  <sodipodi:namedview
     id="base"
     pagecolor="#ffffff"
     bordercolor="#666666"
     borderopacity="1.0"
     inkscape:pageopacity="0.0"
     inkscape:pageshadow="2"
     inkscape:zoom="0.35"
     inkscape:cx="-560"
     inkscape:cy="560"
     inkscape:document-units="mm"
     inkscape:current-layer="layer1"
     showgrid="false"
     inkscape:window-width="1920"
     inkscape:window-height="986"
     inkscape:window-x="-11"
     inkscape:window-y="-11"
     inkscape:window-maximized="1" />
  <metadata
     id="metadata131890">
    <rdf:RDF>
      <cc:Work
         rdf:about="">
        <dc:format>image/svg+xml</dc:format>
        <dc:type
           rdf:resource="http://purl.org/dc/dcmitype/StillImage" />
        <dc:title></dc:title>
      </cc:Work>
    </rdf:RDF>
  </metadata>
  <g
     inkscape:label="Layer 1"
     inkscape:groupmode="layer"
     id="layer1">
    <path
       inkscape:connector-curvature="0"
       id="path100687"
       d="m 78.446006,164.68417 h 0.07028 m -0.07028,0 h 5.80016 m 8.400522,0 h 5.800164 m -0.07028,0 h 0.07028"
       style="fill:none;stroke:#000000;stroke-width:0.14058194;stroke-linecap:butt;stroke-linejoin:miter;stroke-miterlimit:10;stroke-opacity:1" />
    <path
       inkscape:connector-curvature="0"
       id="path100689"
       d="m 84.246166,164.68417 h 0.420304 m 7.559919,0 h 0.420299"
       style="fill:none;stroke:#000000;stroke-width:0.14058194;stroke-linecap:butt;stroke-linejoin:miter;stroke-miterlimit:10;stroke-opacity:1" />
    <path
       inkscape:connector-curvature="0"
       id="path100691"
       d="m 92.226389,164.68417 c 0,-2.08773 -1.692233,-3.77996 -3.779961,-3.77996 -2.087726,0 -3.779958,1.69223 -3.779958,3.77996 0,2.08773 1.692232,3.77996 3.779958,3.77996 2.087728,0 3.779961,-1.69223 3.779961,-3.77996 z m 0,0"
       style="fill:none;stroke:#000000;stroke-width:0.28116387;stroke-linecap:butt;stroke-linejoin:miter;stroke-miterlimit:10;stroke-opacity:1" />
    <path
       inkscape:connector-curvature="0"
       id="path100693"
       d="m 84.246166,168.88305 7.506177,-7.5048"
       style="fill:none;stroke:#000000;stroke-width:0.14058194;stroke-linecap:butt;stroke-linejoin:miter;stroke-miterlimit:10;stroke-opacity:1" />
    <path
       inkscape:connector-curvature="0"
       id="path100695"
       d="m 92.646688,160.48391 c -0.314191,0.21497 -0.894345,0.49609 -1.367014,0.62149 l 0.745522,0.74552 c 0.124022,-0.47267 0.40652,-1.05282 0.621492,-1.36701"
       style="fill:#000000;fill-opacity:1;fill-rule:nonzero;stroke:none;stroke-width:0.35277778" />
    <g
       id="use100697"
       style="fill:#000000;fill-opacity:1"
       transform="matrix(0.09333912,0,0,0.09333912,86.986947,165.88946)">
      <path
         inkscape:connector-curvature="0"
         id="path141373"
         d="M 7.765625,-2 H 7.296875 C 7.28125,-1.859375 7.203125,-1.4375 7.125,-1.25 7.078125,-1.125 7.03125,-1.03125 6.4375,-1.03125 H 5.71875 c 0.21875,-0.4375 0.484375,-0.796875 0.796875,-1.1875 0.5625,-0.71875 1.125,-1.4375 1.125,-2.34375 0,-1.0625 -0.90625,-2.390625 -3.5,-2.390625 -2.609375,0 -3.5,1.328125 -3.5,2.390625 0,0.921875 0.5625,1.640625 1.109375,2.328125 0.359375,0.453125 0.609375,0.78125 0.796875,1.203125 H 1.828125 C 1.25,-1.03125 1.203125,-1.125 1.15625,-1.21875 1.09375,-1.40625 1,-1.890625 0.984375,-2 H 0.515625 L 0.875,0 H 2.78125 C 3,0 3.09375,0 3.09375,-0.265625 c 0,-0.703125 -0.296875,-1.625 -0.4375,-2.0625 -0.265625,-0.78125 -0.5,-1.5 -0.5,-2.234375 0,-0.375 0.0625,-1.09375 0.546875,-1.53125 0.484375,-0.453125 1.140625,-0.5 1.4375,-0.5 0.515625,0 1.078125,0.15625 1.4375,0.515625 0.296875,0.28125 0.53125,0.71875 0.53125,1.515625 0,0.703125 -0.203125,1.375 -0.453125,2.125 -0.1875,0.59375 -0.484375,1.46875 -0.484375,2.171875 C 5.171875,0 5.28125,0 5.5,0 h 1.890625 z m 0,0"
         style="stroke:none" />
    </g>
  </g>
</svg>

<svg xmlns:rdf="http://www.w3.org/1999/02/22-rdf-syntax-ns#" xmlns="http://www.w3.org/2000/svg" height="300" width="300" version="1.1" xmlns:cc="http://creativecommons.org/ns#" xmlns:dc="http://purl.org/dc/elements/1.1/" viewBox="0 0 300 300">
 <title>CircuiTikZ</title>
 <g transform="translate(0 -752.36)">
  <g transform="matrix(14.999 0 0 14.999 -1176.6 -1568.2)">
   <path style="stroke:#000;stroke-miterlimit:10;stroke-width:.14058;fill:none" d="m78.446 164.68h0.07028m-0.07028 0h5.8002m8.4005 0h5.8002m-0.07028 0h0.07028"/>
   <path style="stroke:#000;stroke-miterlimit:10;stroke-width:.14058;fill:none" d="m84.246 164.68h0.4203m7.5599 0h0.4203"/>
   <path style="stroke:#000;stroke-miterlimit:10;stroke-width:.28116;fill:none" d="m92.226 164.68c0-2.0877-1.6922-3.78-3.78-3.78-2.0877 0-3.78 1.6922-3.78 3.78 0 2.0877 1.6922 3.78 3.78 3.78 2.0877 0 3.78-1.6922 3.78-3.78z"/>
   <path style="stroke:#000;stroke-miterlimit:10;stroke-width:.14058;fill:none" d="m84.246 168.88 7.5062-7.5048"/>
   <path d="m92.647 160.48c-0.31419 0.21497-0.89434 0.49609-1.367 0.62149l0.74552 0.74552c0.12402-0.47267 0.40652-1.0528 0.62149-1.367"/>
   <g transform="matrix(.093339 0 0 .093339 86.987 165.89)">
    <path d="m7.7656-2h-0.46875c-0.0156 0.1406-0.0937 0.5625-0.1718 0.75-0.0469 0.125-0.0938 0.2188-0.6875 0.2188h-0.71875c0.21875-0.4375 0.48438-0.79688 0.79688-1.1875 0.5625-0.71875 1.125-1.4375 1.125-2.3438 0-1.0625-0.90625-2.3906-3.5-2.3906-2.6094 0-3.5 1.3281-3.5 2.3906 0 0.92188 0.5625 1.6406 1.1094 2.3281 0.35938 0.45312 0.60938 0.78125 0.79688 1.2031h-0.71875c-0.5782 0.0001-0.6251-0.0937-0.672-0.1875-0.0624-0.1874-0.1562-0.6718-0.17182-0.7812h-0.46876l0.35938 2h1.9062c0.2188 0 0.3126 0 0.3126-0.26562 0-0.70312-0.29688-1.625-0.4375-2.0625-0.26562-0.78125-0.5-1.5-0.5-2.2344 0-0.375 0.0625-1.0938 0.54688-1.5312 0.48438-0.45312 1.1406-0.5 1.4375-0.5 0.51562 0 1.0781 0.15625 1.4375 0.51562 0.29688 0.28125 0.53125 0.71875 0.53125 1.5156 0 0.70312-0.20312 1.375-0.45312 2.125-0.1875 0.59375-0.48438 1.4688-0.48438 2.1719 0 0.26562 0.1093 0.26562 0.3281 0.26562h1.8906z"/>
   </g>
  </g>
 </g>
</svg>
